X:175
T:Darling, The
R:Strathspey
B:The Athole Collection
M:C|
L:1/8
K:B Minor
f|c<F c>B A<F F>f|c<F c>e f2 f>a|1 c<F c>B A>F F<f|e>c A<c B2B:|2
c<F c>B A>B c<f|e>c A<c B2B||d|c<f f>^g a>cc>B|c<f f>^g a2 g>f|
c<f f>^g a>f c<a|e<c A<c B2 B>d|c<f f>^g a>cc>B|c<f f>^g a2 g<b|
f<a ^g>f e>c c<a|e<c a>c B2B||

